X: 1484
T: Gervasoni Waltz No 2
B: australian traditional tunes wiki
M:3/4
L:1/8
R: Waltz
Q: 1/4=100
K:D
V:1 
FG||"D"A4(3BcB|A2G2F2|.A4(3BcB|A4ff|f2e2dd|d2c2B2|A6|"G"G6-|G4d2|
"A"c4d2|e4f2|g3f gf|g4d2|c3Bc2|B4Ad|"D"f6|f2F2G2|
"D"A4(3BcB|A2G2F2|A4(3BcB|A4f2|f2e2d2|d2e2f2|"G"g4f2|B6|
g2f2e2|"D"d4Ad|f4(3dfd|"A7"g2e2(3ABA|A2B2c2|"D"d6|d4||
% abcbook-tune_id 6342d53a355954d0b43fb5ee


% abcbook-boost 0
% abcbook-tablature 
% abcbook-transpose 
% abcbook-lastupdated 1665324367398
% abcbook-soundfonts 
% abcbook-repeats 1
% NFF Book 2014

